X:1
L:1/8
Q:1/4=120
M:2/2
K:D
 A | dAFA d2 df | edcd efga | fdec d2 AF | GBAG FDD :: A | f2 fd g2 ge | f2 fd geef | agfe d2 AF | 
 GBAG FDD :|
